X:1
T:Lausanne, 12.12.12.12
T:Lausanne, 12.12.12.12
T:Geneva, Switzerland, 1705
T:Public Domain Courtesy of the Cyber Hymnal™
C:Geneva, Switzerland, 1705
Z:Public Domain
Z:Courtesy of the Cyber Hymnal™
%%score ( 1 2 ) ( 3 4 )
L:1/8
Q:1/4=115
M:4/4
K:Eb
V:1 treble 
V:2 treble 
V:3 bass 
V:4 bass 
V:1
 [EB]2 | [EG]2 [Ec]2 [EB]2 [FA]2 | [EG]6 [EG]2 | [EA]2 [Ec]2 [EB]2 [EG]2 | [DF]6 [DB]2 | %5
 [EB]2 [GB]2 [Gc]2 d2 | [Ee]6 [EB]2 | [CA]2 [EG]2 [EF]2 [DF]2 | E6 [Ge]2 | %9
 [Fd]2 [FB]2 [Fc]2 [Fd]2 | e6 [EB]2 | [Ec]2 [Ec]2 [EB]2 [EG]2 | [DF]6 [FB]2 | %13
 [EG]2 [Ec]2 [EB]2 [FA]2 | [EG]6 E2 | [EF]2 [EA]2 [EG]2 [DF]2 x | E6 |] %17
V:2
 x2 | x8 | x8 | x8 | x8 | x6 (GF) | x8 | x8 | E6 x2 | x8 | (E2 F2 G2) x2 | x8 | x8 | x8 | x6 E2 | %15
 x9 | E6 |] %17
V:3
 [E,G,]2 | [E,B,]2 A,2 [G,B,]2 [D,B,]2 | [E,B,]6 [_D,B,]2 | [C,A,]2 [A,,A,]2 [E,G,]2 [E,B,]2 | %4
 [B,,B,]6 B,2 | [G,B,]2 [E,E]2 [C,E]2 [=B,,G,]2 | [C,G,]6 [E,G,]2 | [F,A,]2 [G,B,]2 [A,C]2 B,2 | %8
 [E,G,]6 [E,B,]2 | [B,,B,]2 [B,D]2 [=A,C]2 [_A,B,]2 | ([G,B,]2 [F,A,]2 [E,G,]2) [E,G,]2 | %11
 A,2 A,2 [G,B,]2 [E,B,]2 | [B,,B,]6 [D,B,]2 | [E,B,]2 A,2 [G,B,]2 [D,B,]2 | [E,B,]6 [G,B,]2 | %15
 [A,C]2 [F,C]2 B,3 z A, | [E,G,]6 |] %17
V:4
 x2 | x2 A,2 x4 | x8 | x8 | x6 B,2 | x8 | x8 | x6 B,2 | x8 | x8 | x8 | A,2 A,2 x4 | x8 | %13
 x2 A,2 x4 | x8 | x4 B,2 B,,2 x | x6 |] %17

